img/logo.svg

<svg fill="none" height="180" viewBox="0 0 180 180" width="180" xmlns="http://www.w3.org/2000/svg" xmlns:xlink="http://www.w3.org/1999/xlink"><filter id="a" color-interpolation-filters="sRGB" filterUnits="userSpaceOnUse" height="180" width="180" x="0" y="0"><feFlood flood-opacity="0" result="BackgroundImageFix"/><feColorMatrix in="SourceAlpha" type="matrix" values="0 0 0 0 0 0 0 0 0 0 0 0 0 0 0 0 0 0 127 0"/><feOffset dy="4"/><feGaussianBlur stdDeviation="4"/><feColorMatrix type="matrix" values="0 0 0 0 0 0 0 0 0 0 0 0 0 0 0 0 0 0 0.12 0"/><feBlend in2="BackgroundImageFix" mode="normal" result="effect1_dropShadow"/><feBlend in="SourceGraphic" in2="effect1_dropShadow" mode="normal" result="shape"/></filter><filter id="b" color-interpolation-filters="sRGB" filterUnits="userSpaceOnUse" height="146.05" width="161.662" x="9.32504" y="18.0526"><feFlood flood-opacity="0" result="BackgroundImageFix"/><feBlend in="SourceGraphic" in2="BackgroundImageFix" mode="normal" result="shape"/><feGaussianBlur result="effect1_foregroundBlur" stdDeviation="11.208"/></filter><filter id="c" color-interpolation-filters="sRGB" filterUnits="userSpaceOnUse" height="60.1966" width="60.2024" x="29.7408" y="36.5847"><feFlood flood-opacity="0" result="BackgroundImageFix"/><feColorMatrix in="SourceAlpha" type="matrix" values="0 0 0 0 0 0 0 0 0 0 0 0 0 0 0 0 0 0 127 0"/><feOffset dy="1"/><feGaussianBlur stdDeviation="1"/><feColorMatrix type="matrix" values="0 0 0 0 0 0 0 0 0 0 0 0 0 0 0 0 0 0 0.16 0"/><feBlend in2="BackgroundImageFix" mode="normal" result="effect1_dropShadow"/><feBlend in="SourceGraphic" in2="effect1_dropShadow" mode="normal" result="shape"/><feColorMatrix in="SourceAlpha" result="hardAlpha" type="matrix" values="0 0 0 0 0 0 0 0 0 0 0 0 0 0 0 0 0 0 127 0"/><feOffset dy="2"/><feGaussianBlur stdDeviation="1"/><feComposite in2="hardAlpha" k2="-1" k3="1" operator="arithmetic"/><feColorMatrix type="matrix" values="0 0 0 0 1 0 0 0 0 1 0 0 0 0 1 0 0 0 0.25 0"/><feBlend in2="shape" mode="normal" result="effect2_innerShadow"/></filter><filter id="d" color-interpolation-filters="sRGB" filterUnits="userSpaceOnUse" height="60.5159" width="61.8914" x="89.1306" y="36.2654"><feFlood flood-opacity="0" result="BackgroundImageFix"/><feColorMatrix in="SourceAlpha" type="matrix" values="0 0 0 0 0 0 0 0 0 0 0 0 0 0 0 0 0 0 127 0"/><feOffset dy="1"/><feGaussianBlur stdDeviation="1"/><feColorMatrix type="matrix" values="0 0 0 0 0 0 0 0 0 0 0 0 0 0 0 0 0 0 0.16 0"/><feBlend in2="BackgroundImageFix" mode="normal" result="effect1_dropShadow"/><feBlend in="SourceGraphic" in2="effect1_dropShadow" mode="normal" result="shape"/><feColorMatrix in="SourceAlpha" result="hardAlpha" type="matrix" values="0 0 0 0 0 0 0 0 0 0 0 0 0 0 0 0 0 0 127 0"/><feOffset dy="2"/><feGaussianBlur stdDeviation="1"/><feComposite in2="hardAlpha" k2="-1" k3="1" operator="arithmetic"/><feColorMatrix type="matrix" values="0 0 0 0 1 0 0 0 0 1 0 0 0 0 1 0 0 0 0.25 0"/><feBlend in2="shape" mode="normal" result="effect2_innerShadow"/></filter><filter id="e" color-interpolation-filters="sRGB" filterUnits="userSpaceOnUse" height="40.2778" width="120.659" x="29.9119" y="101.205"><feFlood flood-opacity="0" result="BackgroundImageFix"/><feColorMatrix in="SourceAlpha" type="matrix" values="0 0 0 0 0 0 0 0 0 0 0 0 0 0 0 0 0 0 127 0"/><feOffset dy="1"/><feGaussianBlur stdDeviation="1"/><feColorMatrix type="matrix" values="0 0 0 0 0 0 0 0 0 0 0 0 0 0 0 0 0 0 0.16 0"/><feBlend in2="BackgroundImageFix" mode="normal" result="effect1_dropShadow"/><feBlend in="SourceGraphic" in2="effect1_dropShadow" mode="normal" result="shape"/><feColorMatrix in="SourceAlpha" result="hardAlpha" type="matrix" values="0 0 0 0 0 0 0 0 0 0 0 0 0 0 0 0 0 0 127 0"/><feOffset dy="2"/><feGaussianBlur stdDeviation="1"/><feComposite in2="hardAlpha" k2="-1" k3="1" operator="arithmetic"/><feColorMatrix type="matrix" values="0 0 0 0 1 0 0 0 0 1 0 0 0 0 1 0 0 0 0.25 0"/><feBlend in2="shape" mode="normal" result="effect2_innerShadow"/></filter><radialGradient id="f" cx="0" cy="0" gradientTransform="matrix(0 143.9 -203.563 0 90 33.3086)" gradientUnits="userSpaceOnUse" r="1"><stop offset=".279762" stop-color="#ff3b57"/><stop offset=".876639" stop-color="#f40023"/></radialGradient><mask id="g" height="164" maskUnits="userSpaceOnUse" width="164" x="8" y="4"><path d="m141.09 4h-102.1798c-17.0713 0-30.9102 13.8389-30.9102 30.9102v102.1798c0 17.071 13.8389 30.91 30.9102 30.91h102.1798c17.071 0 30.91-13.839 30.91-30.91v-102.1798c0-17.0713-13.839-30.9102-30.91-30.9102z" fill="#c4c4c4"/></mask><g filter="url(#a)"><g mask="url(#g)"><path d="m172 4h-164v164h164z" fill="url(#f)"/><g fill="#ffb3b7" filter="url(#b)" opacity=".4"><path d="m59.8393 40.788c-15.6457 0-28.0983 12.7719-28.0983 28.0983 0 15.6456 12.7719 28.0983 28.0983 28.0983 15.3263 0 28.0982-12.772 28.0982-28.0983.3194-15.6457-12.4526-28.0983-28.0982-28.0983zm0 38.9545c-6.0668 0-10.8562-4.7895-10.8562-10.8562 0-6.0668 4.7894-10.8562 10.8562-10.8562 6.0667 0 10.8561 4.7894 10.8561 10.8562 0 6.0667-4.7894 10.8562-10.8561 10.8562z" opacity=".4"/><path d="m146.369 88.0441-14.687-17.5614c-.639-.9579-.639-1.9158 0-2.8737l14.687-17.5615c3.193-3.5122.32-9.2596-4.15-9.2596h-9.579c-2.874 0-5.748 1.2771-7.664 3.5122l-8.94 11.4948c-.639.9579-2.235.3193-2.235-.6386v-7.3439c0-4.1508-3.193-7.3438-7.344-7.3438h-7.9825c-4.1509 0-7.3438 3.193-7.3438 7.3438v41.8282c0 4.1509 3.1929 7.3439 7.3438 7.3439h7.9825c4.151 0 7.344-3.193 7.344-7.3439v-7.0245c0-1.2773 1.596-1.5966 2.235-.6387l8.621 11.4947c1.916 2.2352 4.79 3.5124 7.663 3.5124h9.579c4.79.3192 7.663-5.4282 4.47-8.9404z" opacity=".4"/><path d="m90.1725 141.686c-19.1579 0-37.9966-6.386-53.9615-18.519-4.1509-3.193-6.3861-7.983-1.5966-14.049 4.7895-6.067 8.9404-3.512 12.772-.639 12.772 9.898 27.1404 14.049 42.7861 14.049 15.6455 0 29.6945-4.151 42.4665-14.049 3.832-2.873 7.663-5.428 13.091.639 5.109 6.066 2.555 10.856-1.596 14.049-15.965 11.814-34.804 18.519-53.9615 18.519z" opacity=".4"/></g><g filter="url(#c)"><path d="m59.8391 37.5847c-15.6456 0-28.0983 12.772-28.0983 28.0983 0 15.6457 12.772 28.0983 28.0983 28.0983s28.0983-12.772 28.0983-28.0983c.3194-15.6457-12.4526-28.0983-28.0983-28.0983zm0 38.9545c-6.0667 0-10.8562-4.7895-10.8562-10.8562s4.7895-10.8562 10.8562-10.8562 10.8562 4.7895 10.8562 10.8562-4.7895 10.8562-10.8562 10.8562z" fill="#eafaff"/></g><g filter="url(#d)"><path d="m147.016 85.5996-15.334-18.3201c-.639-.9579-.639-1.9158 0-2.8737l15.414-18.525c4.404-5.2851.48-8.2961-4.004-8.2961h-10.453c-2.873 0-5.747 1.2771-7.663 3.5123l-8.94 11.4947c-.639.9579-2.235.3193-2.235-.6385v-7.344c0-4.1508-1.7-7.3438-7.344-7.3438h-7.9826c-5.8319 0-7.3438 3.193-7.3438 7.3438v41.8282c0 4.1509 1.4318 7.3439 7.3438 7.3439h7.9826c5.965 0 7.344-3.193 7.344-7.3439v-7.0245c0-1.2772 1.596-1.5966 2.235-.6387l8.621 11.4947c1.916 2.2352 4.789 3.5124 7.663 3.5124h10.772c5.685 0 7.117-4.6695 3.924-8.1817z" fill="#eafaff"/></g><g filter="url(#e)"><path d="m90.1725 138.483c-19.1579 0-37.9966-6.386-53.9615-18.519-4.1509-3.193-6.3861-7.983-1.5966-14.049 4.7895-6.067 8.9404-3.513 12.772-.639 12.772 9.898 27.1404 14.049 42.7861 14.049 15.6455 0 29.6945-4.151 42.4665-14.049 3.832-2.874 7.663-5.428 13.091.639 5.109 6.066 2.555 10.856-1.596 14.049-15.965 11.814-34.804 18.519-53.9615 18.519z" fill="#eafaff"/></g></g></g></svg>

<svg width="180" height="180" viewBox="0 0 180 180" fill="none" xmlns="http://www.w3.org/2000/svg">
<g filter="url(#filter0_d)">
<mask id="mask0" mask-type="alpha" maskUnits="userSpaceOnUse" x="8" y="4" width="164" height="164">
<path d="M141.09 4H38.9102C21.8389 4 8 17.8389 8 34.9102V137.09C8 154.161 21.8389 168 38.9102 168H141.09C158.161 168 172 154.161 172 137.09V34.9102C172 17.8389 158.161 4 141.09 4Z" fill="#C4C4C4"/>
</mask>
<g mask="url(#mask0)">
<path d="M172 4H8V168H172V4Z" fill="url(#paint0_radial)"/>
<g opacity="0.4" filter="url(#filter1_f)">
<path opacity="0.4" d="M59.8393 40.788C44.1936 40.788 31.741 53.5599 31.741 68.8863C31.741 84.5319 44.5129 96.9846 59.8393 96.9846C75.1656 96.9846 87.9375 84.2126 87.9375 68.8863C88.2569 53.2406 75.4849 40.788 59.8393 40.788ZM59.8393 79.7425C53.7725 79.7425 48.9831 74.953 48.9831 68.8863C48.9831 62.8195 53.7725 58.0301 59.8393 58.0301C65.906 58.0301 70.6954 62.8195 70.6954 68.8863C70.6954 74.953 65.906 79.7425 59.8393 79.7425Z" fill="#FFB3B7"/>
<path opacity="0.4" d="M146.369 88.0441L131.682 70.4827C131.043 69.5248 131.043 68.5669 131.682 67.609L146.369 50.0475C149.562 46.5353 146.689 40.7879 142.219 40.7879H132.64C129.766 40.7879 126.892 42.065 124.976 44.3001L116.036 55.7949C115.397 56.7528 113.801 56.1142 113.801 55.1563V47.8124C113.801 43.6616 110.608 40.4686 106.457 40.4686H98.4745C94.3236 40.4686 91.1307 43.6616 91.1307 47.8124V89.6406C91.1307 93.7915 94.3236 96.9845 98.4745 96.9845H106.457C110.608 96.9845 113.801 93.7915 113.801 89.6406V82.6161C113.801 81.3388 115.397 81.0195 116.036 81.9774L124.657 93.4721C126.573 95.7073 129.447 96.9845 132.32 96.9845H141.899C146.689 97.3037 149.562 91.5563 146.369 88.0441Z" fill="#FFB3B7"/>
<path opacity="0.4" d="M90.1725 141.686C71.0146 141.686 52.1759 135.3 36.211 123.167C32.0601 119.974 29.8249 115.184 34.6144 109.118C39.4039 103.051 43.5548 105.606 47.3864 108.479C60.1584 118.377 74.5268 122.528 90.1725 122.528C105.818 122.528 119.867 118.377 132.639 108.479C136.471 105.606 140.302 103.051 145.73 109.118C150.839 115.184 148.285 119.974 144.134 123.167C128.169 134.981 109.33 141.686 90.1725 141.686Z" fill="#FFB3B7"/>
</g>
<g filter="url(#filter2_di)">
<path d="M59.8391 37.5847C44.1935 37.5847 31.7408 50.3567 31.7408 65.683C31.7408 81.3287 44.5128 93.7813 59.8391 93.7813C75.1654 93.7813 87.9374 81.0093 87.9374 65.683C88.2568 50.0373 75.4848 37.5847 59.8391 37.5847ZM59.8391 76.5392C53.7724 76.5392 48.9829 71.7497 48.9829 65.683C48.9829 59.6163 53.7724 54.8268 59.8391 54.8268C65.9058 54.8268 70.6953 59.6163 70.6953 65.683C70.6953 71.7497 65.9058 76.5392 59.8391 76.5392Z" fill="#EAFAFF"/>
</g>
<g filter="url(#filter3_di)">
<path d="M147.016 85.5996L131.682 67.2795C131.043 66.3216 131.043 65.3637 131.682 64.4058L147.096 45.8808C151.5 40.5957 147.576 37.5847 143.092 37.5847H132.639C129.766 37.5847 126.892 38.8618 124.976 41.097L116.036 52.5917C115.397 53.5496 113.801 52.911 113.801 51.9532V44.6092C113.801 40.4584 112.101 37.2654 106.457 37.2654H98.4744C92.6425 37.2654 91.1306 40.4584 91.1306 44.6092V86.4374C91.1306 90.5883 92.5624 93.7813 98.4744 93.7813H106.457C112.422 93.7813 113.801 90.5883 113.801 86.4374V79.4129C113.801 78.1357 115.397 77.8163 116.036 78.7742L124.657 90.2689C126.573 92.5041 129.446 93.7813 132.32 93.7813H143.092C148.777 93.7813 150.209 89.1118 147.016 85.5996Z" fill="#EAFAFF"/>
</g>
<g filter="url(#filter4_di)">
<path d="M90.1725 138.483C71.0146 138.483 52.1759 132.097 36.211 119.964C32.0601 116.771 29.8249 111.981 34.6144 105.915C39.4039 99.848 43.5548 102.402 47.3864 105.276C60.1584 115.174 74.5268 119.325 90.1725 119.325C105.818 119.325 119.867 115.174 132.639 105.276C136.471 102.402 140.302 99.848 145.73 105.915C150.839 111.981 148.285 116.771 144.134 119.964C128.169 131.778 109.33 138.483 90.1725 138.483Z" fill="#EAFAFF"/>
</g>
</g>
</g>
<defs>
<filter id="filter0_d" x="0" y="0" width="180" height="180" filterUnits="userSpaceOnUse" color-interpolation-filters="sRGB">
<feFlood flood-opacity="0" result="BackgroundImageFix"/>
<feColorMatrix in="SourceAlpha" type="matrix" values="0 0 0 0 0 0 0 0 0 0 0 0 0 0 0 0 0 0 127 0"/>
<feOffset dy="4"/>
<feGaussianBlur stdDeviation="4"/>
<feColorMatrix type="matrix" values="0 0 0 0 0 0 0 0 0 0 0 0 0 0 0 0 0 0 0.12 0"/>
<feBlend mode="normal" in2="BackgroundImageFix" result="effect1_dropShadow"/>
<feBlend mode="normal" in="SourceGraphic" in2="effect1_dropShadow" result="shape"/>
</filter>
<filter id="filter1_f" x="9.32504" y="18.0526" width="161.662" height="146.05" filterUnits="userSpaceOnUse" color-interpolation-filters="sRGB">
<feFlood flood-opacity="0" result="BackgroundImageFix"/>
<feBlend mode="normal" in="SourceGraphic" in2="BackgroundImageFix" result="shape"/>
<feGaussianBlur stdDeviation="11.208" result="effect1_foregroundBlur"/>
</filter>
<filter id="filter2_di" x="29.7408" y="36.5847" width="60.2024" height="60.1966" filterUnits="userSpaceOnUse" color-interpolation-filters="sRGB">
<feFlood flood-opacity="0" result="BackgroundImageFix"/>
<feColorMatrix in="SourceAlpha" type="matrix" values="0 0 0 0 0 0 0 0 0 0 0 0 0 0 0 0 0 0 127 0"/>
<feOffset dy="1"/>
<feGaussianBlur stdDeviation="1"/>
<feColorMatrix type="matrix" values="0 0 0 0 0 0 0 0 0 0 0 0 0 0 0 0 0 0 0.16 0"/>
<feBlend mode="normal" in2="BackgroundImageFix" result="effect1_dropShadow"/>
<feBlend mode="normal" in="SourceGraphic" in2="effect1_dropShadow" result="shape"/>
<feColorMatrix in="SourceAlpha" type="matrix" values="0 0 0 0 0 0 0 0 0 0 0 0 0 0 0 0 0 0 127 0" result="hardAlpha"/>
<feOffset dy="2"/>
<feGaussianBlur stdDeviation="1"/>
<feComposite in2="hardAlpha" operator="arithmetic" k2="-1" k3="1"/>
<feColorMatrix type="matrix" values="0 0 0 0 1 0 0 0 0 1 0 0 0 0 1 0 0 0 0.25 0"/>
<feBlend mode="normal" in2="shape" result="effect2_innerShadow"/>
</filter>
<filter id="filter3_di" x="89.1306" y="36.2654" width="61.8914" height="60.5159" filterUnits="userSpaceOnUse" color-interpolation-filters="sRGB">
<feFlood flood-opacity="0" result="BackgroundImageFix"/>
<feColorMatrix in="SourceAlpha" type="matrix" values="0 0 0 0 0 0 0 0 0 0 0 0 0 0 0 0 0 0 127 0"/>
<feOffset dy="1"/>
<feGaussianBlur stdDeviation="1"/>
<feColorMatrix type="matrix" values="0 0 0 0 0 0 0 0 0 0 0 0 0 0 0 0 0 0 0.16 0"/>
<feBlend mode="normal" in2="BackgroundImageFix" result="effect1_dropShadow"/>
<feBlend mode="normal" in="SourceGraphic" in2="effect1_dropShadow" result="shape"/>
<feColorMatrix in="SourceAlpha" type="matrix" values="0 0 0 0 0 0 0 0 0 0 0 0 0 0 0 0 0 0 127 0" result="hardAlpha"/>
<feOffset dy="2"/>
<feGaussianBlur stdDeviation="1"/>
<feComposite in2="hardAlpha" operator="arithmetic" k2="-1" k3="1"/>
<feColorMatrix type="matrix" values="0 0 0 0 1 0 0 0 0 1 0 0 0 0 1 0 0 0 0.25 0"/>
<feBlend mode="normal" in2="shape" result="effect2_innerShadow"/>
</filter>
<filter id="filter4_di" x="29.9119" y="101.205" width="120.659" height="40.2778" filterUnits="userSpaceOnUse" color-interpolation-filters="sRGB">
<feFlood flood-opacity="0" result="BackgroundImageFix"/>
<feColorMatrix in="SourceAlpha" type="matrix" values="0 0 0 0 0 0 0 0 0 0 0 0 0 0 0 0 0 0 127 0"/>
<feOffset dy="1"/>
<feGaussianBlur stdDeviation="1"/>
<feColorMatrix type="matrix" values="0 0 0 0 0 0 0 0 0 0 0 0 0 0 0 0 0 0 0.16 0"/>
<feBlend mode="normal" in2="BackgroundImageFix" result="effect1_dropShadow"/>
<feBlend mode="normal" in="SourceGraphic" in2="effect1_dropShadow" result="shape"/>
<feColorMatrix in="SourceAlpha" type="matrix" values="0 0 0 0 0 0 0 0 0 0 0 0 0 0 0 0 0 0 127 0" result="hardAlpha"/>
<feOffset dy="2"/>
<feGaussianBlur stdDeviation="1"/>
<feComposite in2="hardAlpha" operator="arithmetic" k2="-1" k3="1"/>
<feColorMatrix type="matrix" values="0 0 0 0 1 0 0 0 0 1 0 0 0 0 1 0 0 0 0.25 0"/>
<feBlend mode="normal" in2="shape" result="effect2_innerShadow"/>
</filter>
<radialGradient id="paint0_radial" cx="0" cy="0" r="1" gradientUnits="userSpaceOnUse" gradientTransform="translate(90 33.3086) rotate(90) scale(143.9 203.563)">
<stop offset="0.279762" stop-color="#FF3B57"/>
<stop offset="0.876639" stop-color="#F40023"/>
</radialGradient>
</defs>
</svg>
